Sources/FrostedUI/Resources/Icons.xcassets/volumeLow20.imageset/volume-low-20.svg

<svg width="20" height="20" viewBox="0 0 20 20" fill="none" xmlns="http://www.w3.org/2000/svg" data-fui-icon="true">
  <path
    d="M8.58008 3.00867C9.5514 2.16703 11.0624 2.85721 11.0625 4.14246V15.8573C11.0625 17.1427 9.55143 17.8328 8.58008 16.9911L5.83887 14.6151C5.52071 14.3394 5.11339 14.1874 4.69238 14.1874H3.4375C2.33293 14.1874 1.4375 13.2919 1.4375 12.1874V7.81238C1.43758 6.70787 2.33298 5.81238 3.4375 5.81238H4.69238C5.11342 5.81238 5.5207 5.66039 5.83887 5.38464L8.58008 3.00867ZM6.82129 6.51843C6.2304 7.03054 5.47431 7.31238 4.69238 7.31238H3.4375C3.1614 7.31238 2.93758 7.5363 2.9375 7.81238V12.1874C2.9375 12.4635 3.16136 12.6874 3.4375 12.6874H4.69238C5.47428 12.6874 6.23041 12.9693 6.82129 13.4813L9.5625 15.8573V4.14246L6.82129 6.51843ZM13.1914 6.99988C13.4676 6.6914 13.9414 6.66523 14.25 6.94128L13.918 7.31238C14.2434 6.94871 14.2506 6.94123 14.251 6.94128V6.94226L14.252 6.94324C14.2527 6.94391 14.254 6.94444 14.2549 6.94519C14.2568 6.9469 14.2594 6.94891 14.2617 6.95105C14.2664 6.95535 14.272 6.96062 14.2783 6.96667C14.2911 6.9789 14.3072 6.99515 14.3262 7.01453C14.3641 7.0533 14.4137 7.1069 14.4707 7.17468C14.5845 7.31016 14.7301 7.50506 14.873 7.75964C15.1607 8.27182 15.4375 9.0223 15.4375 9.99988C15.4375 10.9775 15.1606 11.7279 14.873 12.2401C14.7301 12.4947 14.5845 12.6896 14.4707 12.8251C14.4137 12.8929 14.3641 12.9464 14.3262 12.9852C14.3072 13.0046 14.2911 13.0209 14.2783 13.0331C14.272 13.0391 14.2664 13.0444 14.2617 13.0487C14.2594 13.0508 14.2568 13.0529 14.2549 13.0546C14.254 13.0553 14.2527 13.0559 14.252 13.0565L14.251 13.0575V13.0585C14.2507 13.0587 14.2501 13.0588 13.75 12.4999L14.25 13.0585C13.9413 13.3346 13.4676 13.3084 13.1914 12.9999C12.9155 12.6914 12.941 12.2175 13.249 11.9413L13.2549 11.9354C13.2683 11.9217 13.2918 11.8965 13.3223 11.8602C13.3841 11.7866 13.4733 11.6681 13.5645 11.5057C13.7455 11.1833 13.9375 10.6833 13.9375 9.99988C13.9375 9.31642 13.7455 8.81648 13.5645 8.49402C13.4732 8.33166 13.3841 8.21315 13.3223 8.13953C13.2918 8.10325 13.2682 8.07799 13.2549 8.06433L13.248 8.0575H13.249L13.1953 8.00476C12.9392 7.72397 12.9325 7.28924 13.1914 6.99988Z"
    fill="currentColor"
  />
</svg>

<svg xmlns="http://www.w3.org/2000/svg" width="20" height="20" fill="none" data-fui-icon="true" viewBox="0 0 20 20"><path fill="currentColor" d="M8.58 3.009c.971-.842 2.482-.152 2.483 1.133v11.715c0 1.286-1.512 1.976-2.483 1.134L5.84 14.615a1.75 1.75 0 0 0-1.147-.428H3.437a2 2 0 0 1-2-2V7.812a2 2 0 0 1 2-2h1.255c.421 0 .829-.152 1.147-.427zm-1.759 3.51a3.25 3.25 0 0 1-2.129.793H3.437a.5.5 0 0 0-.5.5v4.375a.5.5 0 0 0 .5.5h1.255c.782 0 1.538.282 2.13.794l2.74 2.376V4.142zm6.37.48a.75.75 0 0 1 1.059-.058l-.332.371c.325-.363.333-.37.333-.37l.001.001.003.002.007.006a1 1 0 0 1 .064.064q.058.057.145.16c.114.135.26.33.402.585.288.512.565 1.262.565 2.24 0 .977-.277 1.728-.565 2.24a3.8 3.8 0 0 1-.547.745l-.064.064-.007.006q-.002 0-.003.002h-.001v.002l-.501-.56.5.56a.75.75 0 0 1-1.001-1.118l.006-.006q.02-.02.067-.075c.062-.073.151-.192.243-.354A3.04 3.04 0 0 0 13.938 10a3.04 3.04 0 0 0-.373-1.506 2.3 2.3 0 0 0-.31-.43l-.007-.007h.001l-.054-.052A.75.75 0 0 1 13.191 7"/></svg>
